X:1
T:Clarksville, HM
T:Clarksville, HM
T:William Batchelder Bradbury (1816-1868)
T:Public Domain Courtesy of the Cyber Hymnal™
C:William Batchelder Bradbury (1816-1868)
Z:Public Domain
Z:Courtesy of the Cyber Hymnal™
%%score ( 1 2 ) ( 3 4 )
L:1/8
Q:1/4=105
M:4/4
K:Eb
V:1 treble 
V:2 treble 
V:3 bass 
V:4 bass 
V:1
|: [GB]2 | [GB]3 [FA] [EG]2 [FA]2 | [GB]4 [Ac]4 | [GB]2 ([FA][EG]) [DF]2 ([EG][FA]) | [EG]6 :| %5
 [GB]2 | [Ac]3 [Bd] [ce]2 ([Bd][Ac]) | [GB]2 ([FA][EG]) [DF]2 [FB]2 | B6 [Ac]2 | %9
 [GB]2 [EG]2 [DF]2 [FA]2 | [EG]6 |] %11
V:2
|: x2 | x8 | x8 | x8 | x6 :| x2 | x8 | x8 | (G2 F2 E2) x2 | x8 | x6 |] %11
V:3
|: [E,B,]2 | [E,B,]3 [E,B,] [E,B,]2 [E,B,]2 | (B,2 E2) [A,,E]4 | %3
 [B,,E]2 [B,,B,]2 [B,,B,]2 [B,,B,]2 | [E,B,]6 :| [E,E]2 | [A,E]3 [A,E] [A,E]2 [A,,E]2 | %7
 [E,E]2 [E,B,]2 [B,,B,]2 [B,,D]2 | ([E,E]2 [F,D]2 [G,E]2) [A,E]2 | (E2 B,2) z2 B,2 | [E,B,]6 |] %11
V:4
|: x2 | x8 | E,4 x4 | x8 | x6 :| x2 | x8 | x8 | x8 | B,4 B,,4 | x6 |] %11

